src/images/svg/markets/basket-spreads.svg

<svg width="48" height="48" viewBox="0 0 48 48" fill="none" xmlns="http://www.w3.org/2000/svg">
<path fill-rule="evenodd" clip-rule="evenodd" d="M0 43.9994C0 46.2084 1.791 47.9994 4 47.9994H36C38.209 47.9994 40 46.2084 40 43.9994V41.6674H0V43.9994Z" fill="#85ACAF"/>
<mask id="mask0_7436_134" style="mask-type:alpha" maskUnits="userSpaceOnUse" x="0" y="13" width="40" height="28">
<path fill-rule="evenodd" clip-rule="evenodd" d="M0 13.8172H39.9999V40.0202H0V13.8172Z" fill="white"/>
</mask>
<g mask="url(#mask0_7436_134)">
<path fill-rule="evenodd" clip-rule="evenodd" d="M26.6309 30.2854V36.2324H23.4019V30.2854H20.1739L23.4019 25.9874L25.0169 23.8384L26.6309 25.9874L29.8599 30.2854H26.6309ZM16.5979 30.8483L14.9839 32.9973L13.3689 30.8493L10.1399 26.5513H13.3689V20.6043H16.5979V26.5513H19.8259L16.5979 30.8483ZM36 13.8172H4C1.791 13.8172 0 15.6082 0 17.8172V40.0202H40V17.8172C40 15.6082 38.209 13.8172 36 13.8172Z" fill="#85ACAF"/>
</g>
<g style="mix-blend-mode:multiply">
<path fill-rule="evenodd" clip-rule="evenodd" d="M34.5 0C27.0446 0 21 6.0435 21 13.5C21 20.9554 27.0446 27 34.5 27C41.9554 27 48 20.9554 48 13.5C48 6.0435 41.9554 0 34.5 0Z" fill="#FF444F"/>
</g>
<path fill-rule="evenodd" clip-rule="evenodd" d="M32.1269 9.31385C32.1269 8.31246 31.3152 7.5 30.3138 7.5C29.3116 7.5 28.5 8.31246 28.5 9.31385C28.5 10.3161 29.3116 11.1277 30.3138 11.1277C31.3152 11.1277 32.1269 10.3161 32.1269 9.31385ZM32.3649 19.4604H29.7257L37.3373 7.5H39.9775L32.3649 19.4604ZM36.8721 17.6864C36.8721 16.685 37.6837 15.8726 38.6859 15.8726C39.6881 15.8726 40.4998 16.685 40.4998 17.6864C40.4998 18.6886 39.6881 19.5002 38.6859 19.5002C37.6837 19.5002 36.8721 18.6886 36.8721 17.6864Z" fill="white"/>
</svg>

<svg width="48" height="48" fill="none" xmlns="http://www.w3.org/2000/svg"><path fill-rule="evenodd" clip-rule="evenodd" d="M0 44a4 4 0 004 4h32a4 4 0 004-4v-2.333H0V44z" fill="#85ACAF"/><mask id="prefix__a" style="mask-type:alpha" maskUnits="userSpaceOnUse" x="0" y="13" width="40" height="28"><path fill-rule="evenodd" clip-rule="evenodd" d="M0 13.817h40V40.02H0V13.817z" fill="#fff"/></mask><g mask="url(#prefix__a)"><path fill-rule="evenodd" clip-rule="evenodd" d="M26.63 30.285v5.947h-3.228v-5.947h-3.228l3.228-4.298 1.615-2.149 1.614 2.15 3.229 4.297h-3.23zm-10.032.563l-1.614 2.15-1.615-2.149-3.23-4.298h3.23v-5.947h3.229v5.947h3.228l-3.228 4.297zM36 13.818H4a4 4 0 00-4 4V40.02h40V17.817a4 4 0 00-4-4z" fill="#85ACAF"/></g><path fill-rule="evenodd" clip-rule="evenodd" d="M34.5 0C27.045 0 21 6.043 21 13.5 21 20.955 27.045 27 34.5 27S48 20.955 48 13.5C48 6.043 41.955 0 34.5 0z" fill="#FF444F"/><path fill-rule="evenodd" clip-rule="evenodd" d="M32.127 9.314a1.814 1.814 0 10-3.627 0 1.814 1.814 0 003.627 0zm.238 10.146h-2.64L37.338 7.5h2.64l-7.612 11.96zm4.507-1.774a1.814 1.814 0 113.628 0 1.814 1.814 0 01-3.628 0z" fill="#fff"/></svg>
